X:70
T:Steffaleken
R:Rörospols
Z:Transcribed to abc by Jon Magnusson 080828, slurs added Bart Brashers 2014-09-28
O:Brekken, Norge
M:3/4
L:1/8
K:D
d2 (d>c) A>d | f2 (f>d) e>f | ( (3geg ) ( (3fdf ) e>c | ( (3def) (d>c) A>A |
d2 (d>c) A>d | f2 (f>d) e>f | ( (3geg ) ( (3fdf ) e>c | ( (3def ) d4 :|
|: a2 (a>f) g>e | f2 (f>d) e>f | ( (3geg ) ( (3fdf ) e>c | ( (3def ) (d>c) A>f |
a2 (a>f) g>e | f2 (f>d) e>f | ( (3geg ) ( (3fdf ) e>c | ( (3def ) d4 :|

